X:1
T:St. Benedict, 77.77
T:St. Benedict, 77.77
T:John Stainer (1840-1901)
T:Public Domain Courtesy of the Cyber Hymnal™
C:John Stainer (1840-1901)
Z:Public Domain
Z:Courtesy of the Cyber Hymnal™
%%score ( 1 2 ) ( 3 4 )
L:1/8
Q:1/4=108
M:4/4
K:Eb
V:1 treble 
V:2 treble 
V:3 bass 
V:4 bass 
V:1
 [GB]2 (BA) [EG]2 [FA]2 | [EG]2 [DF]2 E4 | [Ec]2 [=EB]2 [FA]2 F2 | [EG]2 [FA]2 [DF]4 | %4
 [EB]2 [EG]2 [Ge]2 [Fd]2 | [Ec]2 [=EB]2 [FA]4 | [FA]2 [EF]2 (FG) [EA]2 | [EG]2 [DF]2 E4 |] %8
V:2
 x2 F2 x4 | x4 E4 | x6 F2 | x8 | x8 | x8 | x4 E2 x2 | x4 E4 |] %8
V:3
 [E,B,]2 [D,B,]2 [E,B,]2 [A,,C]2 | [B,,B,]2 [B,,A,]2 [C,G,]4 | A,2 [G,B,]2 [F,C]2 [D,B,]2 | %3
 [E,B,]2 [A,C]2 B,4 | [G,B,]2 [G,B,]2 [G,B,]2 [G,=B,]2 | [A,C]2 [G,C]2 C4 | %6
 [D,B,]2 [E,B,]2 [A,C]2 [F,C]2 | B,2 (B,A,) [E,G,]4 |] %8
V:4
 x8 | x8 | A,2 x6 | x4 (B,2 A,2) | x8 | x4 (F,2 E,2) | x8 | B,2 B,,2 x4 |] %8

